X:383
T:Keep the country bonny lassie
T:Through the wood of Favie
R:Reel
O:Scotland
B:Kerr's Second p4
B:Kerr's Second p14
S:Kerr's Second p4
Z:Transcription, minor arr., chords:Mike Long
M:C|
L:1/8
K:A
f|\
"A"eAcA "E"Bcdf|"A"eAcA eAcA|"D"dfce "E"Bcdf|"A"ecac e3:|
|:g|\
"A"aece "E"Bcdg|"A"aece c'ece|"A"aece "E"Bcdf|"A"ecac e3:|
